X: 41251
T: Try Pot, The
R: polka
M: 2/4
K: Gmajor
|:G>E DE|GA B2|c>A BA|BG ED|
G>E DE|GA B2|de/d/ BA|1 G2 GD:|2 G2 AB||
c2 cA|B2 BG|A2 BA|GE D2|
c2 cA|B2 BA|GB AF|G2 AB|
ce ed|Bd dB|A2 BA|GE D2|
G>E DE|GA B2|de/d/ BA|G2 GD||

